assets/images/sections/about/intelligent_moving.svg

<svg width="45" height="29" viewBox="0 0 45 29" version="1.1" xmlns="http://www.w3.org/2000/svg" xmlns:xlink="http://www.w3.org/1999/xlink">
<title>truck</title>
<desc>Created using Figma</desc>
<g id="Canvas" transform="translate(7 4472)">
<g id="truck">
<g id="Shape">
<use xlink:href="#path0_fill" transform="translate(-0.671875 -4450.07)" fill="#ED93A3"/>
</g>
<g id="Shape">
<use xlink:href="#path0_fill" transform="translate(27.4531 -4450.07)" fill="#ED93A3"/>
</g>
<g id="Shape">
<use xlink:href="#path1_fill" transform="translate(-7 -4472)" fill="#ED93A3"/>
</g>
<g id="Shape">
<use xlink:href="#path2_fill" transform="translate(9.875 -4448.66)" fill="#ED93A3"/>
</g>
<g id="Shape">
<use xlink:href="#path3_fill" transform="translate(18.3129 -4455.73)" fill="#ED93A3"/>
</g>
</g>
</g>
<defs>
<path id="path0_fill" d="M 3.51562 1.41463C 3.12732 1.41463 2.8125 1.73134 2.8125 2.12195C 2.8125 2.51195 2.49706 2.82927 2.10938 2.82927C 1.72169 2.82927 1.40625 2.51195 1.40625 2.12195C 1.40625 1.73195 1.72169 1.41463 2.10938 1.41463C 2.49768 1.41463 2.8125 1.09793 2.8125 0.707317C 2.8125 0.316701 2.49768 0 2.10938 0C 0.94623 0 0 0.95196 0 2.12195C 0 3.29194 0.94623 4.2439 2.10938 4.2439C 3.27252 4.2439 4.21875 3.29194 4.21875 2.12195C 4.21875 1.73134 3.90393 1.41463 3.51562 1.41463Z"/>
<path id="path1_fill" fill-rule="evenodd" d="M 45 14.1465C 45 13.9492 44.9196 13.771 44.7901 13.6426C 44.4894 12.8066 43.8803 12.1045 43.0567 11.6904C 43.0347 11.6792 43.0123 11.6694 42.9892 11.6606L 40.6655 10.7832L 39.2499 5.37256L 39.2434 5.34961C 38.794 3.84229 37.4407 2.8291 35.8762 2.8291L 30.9375 2.8291L 30.9375 1.41455C 30.9375 0.634766 30.3066 0 29.5312 0L 1.40625 0C 0.630879 0 0 0.634766 0 1.41455L 0 21.2197C 0 21.9995 0.630879 22.6343 1.40625 22.6343L 3.72138 22.6343C 3.65326 22.8633 3.60114 23.0996 3.5666 23.3413L 0.703125 23.3413C 0.314824 23.3413 0 23.6582 0 24.0488C 0 24.4395 0.314824 24.7559 0.703125 24.7559L 3.56669 24.7559C 3.90902 27.1523 5.96241 29 8.4375 29C 10.9126 29 12.9661 27.1523 13.3083 24.7559L 14.7656 24.7559C 14.7656 25.9263 15.7119 26.8779 16.875 26.8779L 21.0938 26.8779C 22.2569 26.8779 23.2031 25.9263 23.2031 24.7559L 31.6917 24.7559C 32.034 27.1523 34.0874 29 36.5625 29C 39.0376 29 41.0911 27.1523 41.4333 24.7559L 44.2969 24.7559C 44.6852 24.7559 45 24.4395 45 24.0488C 45 23.6582 44.6852 23.3413 44.2969 23.3413L 41.4333 23.3413C 41.3988 23.0996 41.3466 22.8633 41.2785 22.6343L 43.5938 22.6343C 44.3691 22.6343 45 21.9995 45 21.2197L 45 14.8535C 45 14.6875 44.9885 14.5234 44.9663 14.3623C 44.988 14.2939 45 14.2217 45 14.1465ZM 43.5938 18.3906L 42.8906 18.3906L 42.8906 17.6831L 43.5938 17.6831L 43.5938 18.3906ZM 30.9375 13.439L 43.0575 13.439C 42.8904 13.2515 42.6892 13.0923 42.4582 12.9712L 39.9506 12.0244L 30.9375 12.0244L 30.9375 13.439ZM 35.8762 4.24414C 36.8111 4.24414 37.6204 4.84717 37.8933 5.74561L 39.166 10.6099L 30.9375 10.6099L 30.9375 4.24414L 35.8762 4.24414ZM 1.40625 21.2192L 4.21884 21.2192C 4.27685 21.2192 4.33292 21.2275 4.38688 21.2407C 5.27572 19.9473 6.75949 19.0977 8.4375 19.0977C 10.1155 19.0977 11.5994 19.9473 12.4881 21.2407C 12.5422 21.2275 12.5983 21.2192 12.6564 21.2192L 16.875 21.2192L 21.0938 21.2192L 29.5312 21.2192L 29.5312 1.41455L 1.40625 1.41455L 1.40625 16.2681L 23.2035 16.2681C 23.5918 16.2681 23.9066 16.585 23.9066 16.9756C 23.9066 17.3662 23.5918 17.6826 23.2035 17.6826L 1.40625 17.6826L 1.40625 21.2192ZM 8.4375 27.5854C 6.49898 27.5854 4.92188 25.999 4.92188 24.0488C 4.92188 22.0986 6.49898 20.5122 8.4375 20.5122C 10.376 20.5122 11.9531 22.0986 11.9531 24.0488C 11.9531 25.999 10.376 27.5854 8.4375 27.5854ZM 13.1535 22.6343C 13.2217 22.8638 13.2738 23.0996 13.3083 23.3418L 14.7656 23.3418C 14.7656 23.0938 14.8085 22.8555 14.8866 22.6343L 13.1535 22.6343ZM 21.7969 24.7563C 21.7969 25.146 21.4814 25.4634 21.0938 25.4634L 16.875 25.4634C 16.4873 25.4634 16.1719 25.146 16.1719 24.7563L 16.1719 24.0508L 16.1719 23.3418C 16.1719 22.9517 16.4873 22.6343 16.875 22.6343L 21.0938 22.6343C 21.4814 22.6343 21.7969 22.9517 21.7969 23.3418L 21.7969 24.7563ZM 30.2344 22.6343L 23.0822 22.6343C 23.1602 22.8555 23.2031 23.0938 23.2031 23.3418L 31.6916 23.3418C 31.7261 23.0996 31.7783 22.8638 31.8464 22.6343L 30.2344 22.6343ZM 36.5625 27.5854C 34.624 27.5854 33.0469 25.999 33.0469 24.0488C 33.0469 22.0986 34.624 20.5122 36.5625 20.5122C 38.501 20.5122 40.0781 22.0986 40.0781 24.0488C 40.0781 25.999 38.501 27.5854 36.5625 27.5854ZM 40.6131 21.2407C 40.6671 21.2271 40.7232 21.2192 40.7812 21.2192L 43.5938 21.2192L 43.5938 19.8047L 42.8907 19.8047C 42.1153 19.8047 41.4845 19.1699 41.4845 18.3901L 41.4845 17.6826C 41.4845 16.9028 42.1153 16.2681 42.8907 16.2681L 43.5938 16.2681L 43.5938 14.8535L 30.9376 14.8535L 30.9376 21.2192L 32.3438 21.2192C 32.4018 21.2192 32.4579 21.2271 32.5119 21.2407C 33.4007 19.9473 34.8845 19.0977 36.5625 19.0977C 38.2405 19.0977 39.7243 19.9473 40.6131 21.2407Z"/>
<path id="path2_fill" d="M 0.703125 0C 0.517676 0 0.336621 0.0759482 0.205664 0.20689C 0.074707 0.338628 0 0.521646 0 0.707317C 0 0.893784 0.074707 1.07601 0.205664 1.20774C 0.336621 1.33939 0.517676 1.41463 0.703125 1.41463C 0.888574 1.41463 1.06963 1.33939 1.20059 1.20774C 1.33154 1.07601 1.40625 0.892899 1.40625 0.707317C 1.40625 0.521558 1.33154 0.338628 1.20059 0.20689C 1.06963 0.0759482 0.888574 0 0.703125 0Z"/>
<path id="path3_fill" d="M 0.703125 1.41463L 2.10902 1.41463C 2.49732 1.41463 2.81215 1.09793 2.81215 0.707317C 2.81215 0.316701 2.49732 0 2.10902 0L 0.703125 0C 0.314824 0 0 0.316701 0 0.707317C 0 1.09793 0.314736 1.41463 0.703125 1.41463Z"/>
</defs>
</svg>

<svg xmlns="http://www.w3.org/2000/svg" xmlns:xlink="http://www.w3.org/1999/xlink" width="45" height="29"><g fill="#ED93A3" transform="translate(7 4472)"><use xlink:href="#A" x="-.672" y="-4450.07"/><use xlink:href="#A" x="27.453" y="-4450.07"/><use xlink:href="#B" x="-7" y="-4472"/><use xlink:href="#C" x="9.875" y="-4448.66"/><use xlink:href="#D" x="18.313" y="-4455.73"/></g><defs><path id="A" d="M3.516 1.415c-.388 0-.703.317-.703.707s-.315.707-.703.707-.703-.317-.703-.707.315-.707.703-.707.703-.317.703-.707S2.498 0 2.11 0A2.12 2.12 0 0 0 0 2.122a2.12 2.12 0 0 0 2.109 2.122 2.12 2.12 0 0 0 2.109-2.122c0-.39-.315-.707-.703-.707z"/><path id="B" d="M45 14.147c0-.197-.08-.375-.2-.504a3.51 3.51 0 0 0-1.733-1.952.69.69 0 0 0-.068-.03l-2.324-.877-1.422-5.434c-.45-1.507-1.803-2.52-3.367-2.52h-4.94V1.415c0-.78-.63-1.415-1.406-1.415H1.406C.63 0 0 .635 0 1.415V21.22c0 .78.63 1.415 1.406 1.415H3.72a4.92 4.92 0 0 0-.155.707h-2.863c-.388 0-.703.317-.703.707s.315.707.703.707h2.864C3.91 27.152 5.962 29 8.438 29s4.53-1.848 4.87-4.244h1.457a2.12 2.12 0 0 0 2.109 2.122h4.22a2.12 2.12 0 0 0 2.109-2.122h8.49c.342 2.396 2.396 4.244 4.87 4.244s4.53-1.848 4.87-4.244h2.864c.388 0 .703-.316.703-.707s-.315-.707-.703-.707h-2.864a4.92 4.92 0 0 0-.155-.707h2.315C44.37 22.634 45 22 45 21.22v-6.366a3.6 3.6 0 0 0-.034-.491.71.71 0 0 0 .034-.216zm-1.406 4.244h-.703v-.707h.703v.707zM30.938 13.44h12.12a2.12 2.12 0 0 0-.599-.468l-2.508-.947h-9.013v1.415zm4.94-9.195c.935 0 1.744.603 2.017 1.5l1.273 4.864h-8.228V4.244h4.94zM1.406 21.22H4.22c.058 0 .114.008.168.02.89-1.293 2.373-2.143 4.05-2.143s3.162.85 4.05 2.143a.71.71 0 0 1 .168-.021h16.875V1.415H1.406v14.854h21.797c.388 0 .703.317.703.707s-.315.707-.703.707H1.406v3.537zm7.03 6.366c-1.94 0-3.516-1.586-3.516-3.537s1.577-3.537 3.516-3.537 3.516 1.586 3.516 3.537-1.577 3.537-3.516 3.537zm4.716-4.95c.068.23.12.465.155.707h1.457a2.12 2.12 0 0 1 .121-.707h-1.733zm8.643 2.122c0 .4-.316.707-.703.707h-4.22c-.388 0-.703-.317-.703-.707v-1.415c0-.4.315-.707.703-.707h4.22c.388 0 .703.317.703.707v1.415zm8.438-2.122h-7.152c.078.22.12.46.12.707h8.49c.034-.242.087-.478.155-.707h-1.612zm6.328 4.95c-1.938 0-3.516-1.586-3.516-3.537s1.577-3.537 3.516-3.537 3.516 1.586 3.516 3.537-1.577 3.537-3.516 3.537zm4.05-6.345c.054-.014.1-.02.168-.02h2.813v-1.415h-.703c-.775 0-1.406-.635-1.406-1.415v-.707c0-.78.63-1.415 1.406-1.415h.703v-1.415H30.938v6.366h1.406c.058 0 .114.008.168.02.89-1.293 2.373-2.143 4.05-2.143s3.162.85 4.05 2.143z" fill-rule="evenodd"/><path id="C" d="M.703 0a.71.71 0 0 0-.497.207C.075.34 0 .522 0 .707s.075.37.206.5.312.207.497.207.367-.075.497-.207.206-.315.206-.5-.075-.37-.206-.5A.71.71 0 0 0 .703 0z"/><path id="D" d="M.703 1.415H2.11c.388 0 .703-.317.703-.707S2.497 0 2.11 0H.703C.315 0 0 .317 0 .707s.315.707.703.707z"/></defs></svg>
